X:131
M:C|
L:1/8
K:B_
edcB BAGF|GBAc Bdce|d2 B2 ~B2:|
|:FE|DFBF DFBF|G2 E2 E2 GF|=EGcG EGcG|A2 F2 F2 ed|e2 g2 gfed|
edcB BAGF|GBAc Bdce|d2 B2 B2:|

